X:18
T:Reel de Chateauguay
C:Joseph Allard
M:2/4
L:1/16
Z:abc by Bruce Osborne - bosborne@kos.net
K:G
dg|b2bg a2af|ggbg d2dg|fdAB cBce|dBGA B2dg|!
b2bg a2af|ggbg d2dg|fdAB cdef|g2b2 g2:|!
|:BA|G2GB d2g2|efge d2dg|fdAB cBce|dBGA B2BA|!
G2GB d2g2|efge d2dg|fdAB cdef|g2b2 g2:|!
